app/dist/common/images/xinjiang-t-shan-ce.svg

<svg height="18" viewBox="0 0 18 18" width="18" xmlns="http://www.w3.org/2000/svg"><path d="m0 0h18v18h-18z" fill="#f0f3fa"/><path d="m6.93 4-2.93 2.93v4.14l2.93 2.93h4.14l2.93-2.93v-4.14l-2.93-2.93zm2.07 2 1 1h1v1l1 1-1 1v1h-1l-1 1-1-1h-1v-1l-1-1 1-1v-1h1z" fill="#db251a"/></svg>

<!-- by TradingView --><svg width="18" height="18" viewBox="0 0 18 18" xmlns="http://www.w3.org/2000/svg"><path fill="#F0F3FA" d="M0 0h18v18H0z"/><path d="M6.93 4 4 6.93v4.14L6.93 14h4.14L14 11.07V6.93L11.07 4H6.93ZM9 6l1 1h1v1l1 1-1 1v1h-1l-1 1-1-1H7v-1L6 9l1-1V7h1l1-1Z" fill="#DB251A"/></svg>
